X:342
T:Reel 342
M:4/4
K:Dmaj
L:1/8
D>F (3FEF GFED|C>B, (3CB,A, EA,A,G,|F>A, (3DDF FEFA||BcdB AGFDE|2F>E (3EDE F>D (3EDE |D2cd BAFD|CDEF GFED|CDEF GABc|| (3cdc Af feed:||2 (3EFE  (3AFA d2cA| (3Bcd AF G2EC|DB,A,B, D2Bd| (3cdc Ac  (3Bcd AF| (3GFE AD C2A,B,| (3GFE FE E2DB,| (3A,B,A, EA, FA,EF| (3DDB  (3cBA BdFB|
